X:1
T: Sally Magee
C:
R:Jig
Q:180
K:G
M:6/8
L:1/16
D2|:D2G2G2 G2F2G2|A2F2D2 F2G2A2|B4G2 A4F2|G2F2D2 D4D2|
D2G2G2 G2F2G2|B2A2G2 A2B2c2|Bcd2B2 c2A2F2|1A2G2G2 G4D2:|2A2G2G2 G4g2|
|:f2e2f2 d2f2d2|c2A2G2 F2G2A2|f2e2f2 d2f2d2|c2A2F2 G4g2|
f2e2f2 d2f2d2|c2A2G2 F2G2A2|Bcd2B2 c2A2F2|1A2G2G2 G4g2:|2A2G2G2 G4||
